usr/share/icons/biglinux-icons-material-dark/16/actions/document-edit-encrypt.svg

<svg xmlns="http://www.w3.org/2000/svg" viewBox="0 0 16 16">
<defs id="defs3051">
<style id="current-color-scheme" type="text/css">
.ColorScheme-Text{color:#dedede}
</style>
</defs>
<path d="M3 2v7h1V3h8v6h1V2zm2 7v2h2V9zm4 0v2h2V9zm-6 3v2h2v-2zm4 0v2h2v-2zm4 0v2h2v-2z" class="ColorScheme-Text" style="fill:currentColor;fill-opacity:1;stroke:none"/>
</svg>

<svg xmlns="http://www.w3.org/2000/svg" viewBox="0 0 16 16">
  <defs id="defs3051">
    <style type="text/css" id="current-color-scheme">
      .ColorScheme-Text {
        color:#dedede;
      }
      </style>
  </defs>
 <path style="fill:currentColor;fill-opacity:1;stroke:none" 
     d="M 3 2 L 3 9 L 4 9 L 4 3 L 12 3 L 12 9 L 13 9 L 13 2 L 3 2 z M 5 9 L 5 11 L 7 11 L 7 9 L 5 9 z M 9 9 L 9 11 L 11 11 L 11 9 L 9 9 z M 3 12 L 3 14 L 5 14 L 5 12 L 3 12 z M 7 12 L 7 14 L 9 14 L 9 12 L 7 12 z M 11 12 L 11 14 L 13 14 L 13 12 L 11 12 z "
     class="ColorScheme-Text"
     />
</svg>
